X: 38716
T: Streams Of Poulaphouca
R: reel
M: 4/4
K: Dmajor
d2ed AFDF|AFDF ABAF|dAFD ABdB|1 AFDF GAGE:|2 AFDF EFD2||
AFDF AFDF|GECE GECE|AFDF AFDG|GECE FDD2:|

